austria/municipalities/31542.svg

<?xml version="1.0" encoding="UTF-8" standalone="no"?>
<!-- Created with Inkscape (http://www.inkscape.org/) -->

<svg
   xmlns:dc="http://purl.org/dc/elements/1.1/"
   xmlns:cc="http://creativecommons.org/ns#"
   xmlns:rdf="http://www.w3.org/1999/02/22-rdf-syntax-ns#"
   xmlns:svg="http://www.w3.org/2000/svg"
   xmlns="http://www.w3.org/2000/svg"
   xmlns:sodipodi="http://sodipodi.sourceforge.net/DTD/sodipodi-0.dtd"
   xmlns:inkscape="http://www.inkscape.org/namespaces/inkscape"
   width="197.15646mm"
   height="212.55394mm"
   viewBox="0 0 197.15646 212.55394"
   version="1.1"
   id="svg8"
   inkscape:version="0.48.4 r9939"
   sodipodi:docname="AUT Schönbühel-Aggstein COA.svg">
  <defs
     id="defs2">
    <inkscape:path-effect
       effect="spiro"
       id="path-effect1452"
       is_visible="true" />
    <inkscape:path-effect
       effect="spiro"
       id="path-effect1279"
       is_visible="true" />
    <inkscape:path-effect
       effect="spiro"
       id="path-effect1081"
       is_visible="true" />
    <inkscape:path-effect
       effect="spiro"
       id="path-effect1081-9"
       is_visible="true" />
    <inkscape:path-effect
       effect="spiro"
       id="path-effect1279-1"
       is_visible="true" />
  </defs>
  <sodipodi:namedview
     id="base"
     pagecolor="#ffffff"
     bordercolor="#666666"
     borderopacity="1.0"
     inkscape:pageopacity="0.0"
     inkscape:pageshadow="2"
     inkscape:zoom="0.68214058"
     inkscape:cx="372.57916"
     inkscape:cy="401.67674"
     inkscape:document-units="mm"
     inkscape:current-layer="layer1"
     showgrid="false"
     inkscape:window-width="1280"
     inkscape:window-height="998"
     inkscape:window-x="-4"
     inkscape:window-y="-4"
     inkscape:window-maximized="1"
     inkscape:snap-nodes="false"
     fit-margin-top="0"
     fit-margin-left="0"
     fit-margin-right="0"
     fit-margin-bottom="0"
     inkscape:snap-midpoints="true"
     inkscape:snap-smooth-nodes="true" />
  <metadata
     id="metadata5">
    <rdf:RDF>
      <cc:Work
         rdf:about="">
        <dc:format>image/svg+xml</dc:format>
        <dc:type
           rdf:resource="http://purl.org/dc/dcmitype/StillImage" />
        <dc:title></dc:title>
      </cc:Work>
    </rdf:RDF>
  </metadata>
  <g
     inkscape:label="Ebene 1"
     inkscape:groupmode="layer"
     id="layer1"
     transform="translate(-2.2794454,-3.1719001)">
    <path
       inkscape:connector-curvature="0"
       style="fill:#ffffff;stroke:none;stroke-width:2.9104166;stroke-linecap:round;stroke-linejoin:round;stroke-miterlimit:4;stroke-dasharray:none;stroke-opacity:1"
       d="M 5.4368699,4.6271044 C 2.7655399,29.938574 3.2404799,55.580214 6.8471199,80.775424 11.61004,114.04814 22.27548,147.32199 43.51104,173.37597 c 15.01151,18.41767 35.04292,32.70248 57.34637,40.89466 22.30348,-8.19218 42.3349,-22.47699 57.3464,-40.89466 21.23556,-26.05398 31.90151,-59.32783 36.66443,-92.600546 3.60664,-25.19521 4.08158,-50.83685 1.41025,-76.1483196 h -95.42108 z"
       id="path1079-5-4" />
    <ellipse
       style="fill:#009900;fill-opacity:1;stroke:#000000;stroke-width:2.11666656;stroke-linecap:round;stroke-linejoin:round;stroke-miterlimit:4;stroke-dasharray:none;stroke-opacity:1"
       id="path1132-4"
       cx="100.85768"
       cy="146.88756"
       rx="27.773485"
       ry="27.759991"
       d="m 128.63117,146.88756 c 0,15.33142 -12.43462,27.75999 -27.77349,27.75999 -15.338871,0 -27.773484,-12.42857 -27.773484,-27.75999 0,-15.33142 12.434613,-27.75999 27.773484,-27.75999 15.33887,0 27.77349,12.42857 27.77349,27.75999 z" />
    <path
       style="fill:#009900;fill-opacity:1;stroke:#000000;stroke-width:7.99999952;stroke-linecap:round;stroke-linejoin:round;stroke-miterlimit:4;stroke-dasharray:none;stroke-opacity:1"
       d="M 162.63867 438.25781 A 104.97065 104.91965 0 0 0 69.548828 494.78516 C 91.172715 548.21131 119.38242 598.56607 155.83594 643.29102 C 157.12262 644.86965 158.43025 646.43166 159.73633 647.99414 A 104.97065 104.91965 0 0 0 162.63867 648.09766 A 104.97065 104.91965 0 0 0 267.60938 543.17773 A 104.97065 104.91965 0 0 0 162.63867 438.25781 z M 582.51953 438.25781 A 104.97065 104.91965 0 0 0 477.54883 543.17773 A 104.97065 104.91965 0 0 0 582.51953 648.09766 A 104.97065 104.91965 0 0 0 585.45508 647.95117 C 586.74911 646.40274 588.04532 644.85531 589.32031 643.29102 C 625.76184 598.58078 653.96635 548.24445 675.58789 494.83789 A 104.97065 104.91965 0 0 0 582.51953 438.25781 z "
       transform="matrix(0.26458333,0,0,0.26458333,2.2794454,3.1719001)"
       id="path1132-4-0" />
    <path
       style="fill:#009900;fill-opacity:1;stroke:#000000;stroke-width:7.99999952;stroke-linecap:round;stroke-linejoin:round;stroke-miterlimit:4;stroke-dasharray:none;stroke-opacity:1"
       d="M 267.60938 543.17773 A 104.97066 104.91965 0 0 0 162.63867 648.09766 A 104.97066 104.91965 0 0 0 162.76172 651.57812 C 196.22236 690.84421 235.80369 724.8533 279.54492 752.20703 A 104.97066 104.91965 0 0 0 372.58008 648.09766 A 104.97066 104.91965 0 0 0 267.60938 543.17773 z "
       transform="matrix(0.26458333,0,0,0.26458333,2.2794454,3.1719001)"
       id="path1132-4-8" />
    <path
       style="fill:#009900;fill-opacity:1;stroke:#000000;stroke-width:7.99999952;stroke-linecap:round;stroke-linejoin:round;stroke-miterlimit:4;stroke-dasharray:none;stroke-opacity:1"
       d="M 477.54883 543.17773 A 104.97066 104.91965 0 0 0 372.58008 648.09766 A 104.97066 104.91965 0 0 0 465.52734 752.25977 C 509.27926 724.91123 548.87073 690.90408 582.3418 651.63867 A 104.97066 104.91965 0 0 0 582.51953 648.09766 A 104.97066 104.91965 0 0 0 477.54883 543.17773 z "
       transform="matrix(0.26458333,0,0,0.26458333,2.2794454,3.1719001)"
       id="path1132-4-6-9" />
    <path
       style="fill:#009900;fill-opacity:1;stroke:#000000;stroke-width:7.99999952;stroke-linecap:round;stroke-linejoin:round;stroke-miterlimit:4;stroke-dasharray:none;stroke-opacity:1"
       d="M 372.58008 634.09766 A 104.97066 104.91965 0 0 0 267.60938 739.01758 A 104.97066 104.91965 0 0 0 267.80859 744.6582 C 300.51209 766.37884 335.72401 784.31679 372.57812 797.85352 C 409.40177 784.328 444.58504 766.40733 477.26562 744.71094 A 104.97066 104.91965 0 0 0 477.55078 739.01758 A 104.97066 104.91965 0 0 0 372.58008 634.09766 z "
       transform="matrix(0.26458333,0,0,0.26458333,2.2794454,3.1719001)"
       id="path1132-4-6-0" />
    <path
       inkscape:connector-curvature="0"
       style="fill:none;stroke:#000000;stroke-width:2.9104166;stroke-linecap:round;stroke-linejoin:round;stroke-miterlimit:4;stroke-dasharray:none;stroke-opacity:1"
       d="M 5.4368708,4.6271084 C 2.7655407,29.938579 3.2404807,55.58022 6.8471209,80.775433 11.610042,114.04815 22.275482,147.322 43.511041,173.37598 c 15.011503,18.41767 35.042922,32.70248 57.346369,40.89466 22.30348,-8.19218 42.3349,-22.47699 57.3464,-40.89466 21.23556,-26.05398 31.90151,-59.32783 36.66443,-92.600547 3.60664,-25.195213 4.08158,-50.836854 1.41025,-76.1483246 h -95.42108 z"
       id="path1079-5" />
    <path
       transform="translate(201.91896,2e-6)"
       style="fill:#0033ff;stroke:#000000;stroke-width:2.11666656;stroke-linecap:butt;stroke-linejoin:round;stroke-miterlimit:4;stroke-dasharray:none;stroke-opacity:1;fill-opacity:1"
       d="m -164.82021,19.01358 -3.76033,81.78717 c 12.43859,2.99103 25.28996,4.2603 38.07334,3.76033 8.45906,-0.33084 16.88777,-1.43366 25.1472,-3.29029 -7.90145,-4.434278 -15.32257,-9.723797 -22.09193,-15.746376 -10.53681,-9.374406 -19.77396,-21.147742 -22.32696,-35.018072 -0.85488,-4.644538 -0.93465,-9.430792 -0.23502,-14.101238 l 50.29441,10.810949 0.235021,-16.686464 c -12.691451,-1.061861 -25.327261,-2.788492 -37.838321,-5.170453 -9.24301,-1.759762 -18.41795,-3.877055 -27.49741,-6.345556"
       id="path1277-7"
       inkscape:connector-curvature="0"
       inkscape:path-effect="#path-effect1279-1"
       inkscape:original-d="m -164.82021,19.01358 -3.76033,81.78717 c 0,0 25.32208,3.96217 38.07334,3.76033 8.45279,-0.1338 25.1472,-3.29029 25.1472,-3.29029 0,0 -15.86472,-9.188955 -22.09193,-15.746376 -9.53276,-10.038244 -18.34015,-21.761181 -22.32696,-35.018072 -1.35388,-4.501892 -0.23502,-14.101238 -0.23502,-14.101238 l 50.29441,10.810949 0.235021,-16.686464 c 0,0 -25.316981,-2.875107 -37.838321,-5.170453 -9.25252,-1.696124 -27.49741,-6.345556 -27.49741,-6.345556 z"
       sodipodi:nodetypes="ccacaacccac" />
    <g
       transform="translate(201.91896,2e-6)"
       id="g1342-8"
       style="stroke:#000000;stroke-opacity:1;fill:#0033ff;fill-opacity:1">
      <g
         transform="translate(0.21591463,0.3012736)"
         id="g1300-4"
         style="stroke:#000000;stroke-opacity:1;fill:#0033ff;fill-opacity:1">
        <path
           style="fill:#0033ff;stroke:#000000;stroke-width:2.11666656;stroke-linecap:butt;stroke-linejoin:miter;stroke-miterlimit:4;stroke-dasharray:none;stroke-opacity:1;fill-opacity:1"
           d="m -134.30612,28.21289 v 8.849677"
           id="path1281-57"
           inkscape:connector-curvature="0" />
        <path
           style="fill:#0033ff;stroke:#000000;stroke-width:2.11666656;stroke-linecap:butt;stroke-linejoin:miter;stroke-miterlimit:4;stroke-dasharray:none;stroke-opacity:1;fill-opacity:1"
           d="m -129.88128,32.637729 h -8.84968"
           id="path1281-4-6"
           inkscape:connector-curvature="0" />
      </g>
      <g
         id="g1300-5-5"
         transform="translate(-20.537926,-3.0890327)"
         style="stroke:#000000;stroke-opacity:1;fill:#0033ff;fill-opacity:1">
        <path
           style="fill:#0033ff;stroke:#000000;stroke-width:2.11666656;stroke-linecap:butt;stroke-linejoin:miter;stroke-miterlimit:4;stroke-dasharray:none;stroke-opacity:1;fill-opacity:1"
           d="m -134.30612,28.21289 v 8.849677"
           id="path1281-5-5"
           inkscape:connector-curvature="0" />
        <path
           style="fill:#0033ff;stroke:#000000;stroke-width:2.11666656;stroke-linecap:butt;stroke-linejoin:miter;stroke-miterlimit:4;stroke-dasharray:none;stroke-opacity:1;fill-opacity:1"
           d="m -129.88128,32.637729 h -8.84968"
           id="path1281-4-1-0"
           inkscape:connector-curvature="0" />
      </g>
      <g
         id="g1300-2-2"
         transform="translate(20.969765,3.6915652)"
         style="stroke:#000000;stroke-opacity:1;fill:#0033ff;fill-opacity:1">
        <path
           style="fill:#0033ff;stroke:#000000;stroke-width:2.11666656;stroke-linecap:butt;stroke-linejoin:miter;stroke-miterlimit:4;stroke-dasharray:none;stroke-opacity:1;fill-opacity:1"
           d="m -134.30612,28.21289 v 8.849677"
           id="path1281-8-0"
           inkscape:connector-curvature="0" />
        <path
           style="fill:#0033ff;stroke:#000000;stroke-width:2.11666656;stroke-linecap:butt;stroke-linejoin:miter;stroke-miterlimit:4;stroke-dasharray:none;stroke-opacity:1;fill-opacity:1"
           d="m -129.88128,32.637729 h -8.84968"
           id="path1281-4-8-3"
           inkscape:connector-curvature="0" />
      </g>
    </g>
    <path
       style="fill:#000000;stroke:#000000;stroke-width:2.11666656;stroke-linecap:round;stroke-linejoin:round;stroke-miterlimit:4;stroke-dasharray:none;stroke-opacity:1"
       d="m -98.927017,30.762295 79.436271,5.98265 -4.653171,22.767298 c -12.019382,-5.43405 -24.482918,-9.885312 -37.225367,-13.294773 -7.4831,-2.002232 -15.274847,-3.655104 -22.933482,-2.492769 -5.432185,0.824431 -10.640452,3.081347 -14.956621,6.481201 l 0.33237,-19.443607"
       id="path1450"
       inkscape:connector-curvature="0"
       inkscape:path-effect="#path-effect1452"
       inkscape:original-d="m -98.927017,30.762295 79.436271,5.98265 -4.653171,22.767298 c 0,0 -24.383319,-10.346796 -37.225367,-13.294773 -7.494587,-1.720432 -15.330673,-3.644299 -22.933482,-2.492769 -5.37223,0.813684 -14.956621,6.481201 -14.956621,6.481201 z"
       sodipodi:nodetypes="cccaacc"
       transform="translate(201.91895)" />
    <rect
       style="fill:#ffffff;fill-opacity:1;stroke:#000000;stroke-width:2.11666656;stroke-linecap:round;stroke-linejoin:round;stroke-miterlimit:4;stroke-dasharray:none;stroke-opacity:1"
       id="rect1454"
       width="6.1488328"
       height="24.26296"
       x="105.11011"
       y="14.066646"
       ry="3.0744164"
       rx="3.0744164"
       transform="rotate(7.1649424)" />
    <rect
       style="fill:#ffffff;fill-opacity:1;stroke:#000000;stroke-width:2.11667514;stroke-linecap:round;stroke-linejoin:round;stroke-miterlimit:4;stroke-dasharray:none;stroke-opacity:1"
       id="rect1454-0"
       width="6.7624493"
       height="26.488297"
       x="182.34546"
       y="-10.336284"
       ry="3.0743737"
       rx="3.0743754"
       transform="matrix(0.96932645,0.24577681,-0.24968414,0.96832734,0,0)" />
  </g>
</svg>

<svg xmlns="http://www.w3.org/2000/svg" width="745.158" height="803.353" viewBox="0 0 197.156 212.554"><g transform="translate(-2.28 -3.172)"><path style="fill:#fff;stroke:none;stroke-width:2.9104166;stroke-linecap:round;stroke-linejoin:round;stroke-miterlimit:4;stroke-dasharray:none;stroke-opacity:1" d="M5.437 4.627a309.11 309.11 0 0 0 1.41 76.148c4.763 33.273 15.428 66.547 36.664 92.601 15.012 18.418 35.043 32.702 57.346 40.895 22.304-8.193 42.335-22.477 57.347-40.895 21.235-26.054 31.901-59.328 36.664-92.6a309.11 309.11 0 0 0 1.41-76.149h-95.42z"/><ellipse style="fill:#090;fill-opacity:1;stroke:#000;stroke-width:2.11666656;stroke-linecap:round;stroke-linejoin:round;stroke-miterlimit:4;stroke-dasharray:none;stroke-opacity:1" cx="100.858" cy="146.888" rx="27.773" ry="27.76"/><path style="fill:#090;fill-opacity:1;stroke:#000;stroke-width:7.99999952;stroke-linecap:round;stroke-linejoin:round;stroke-miterlimit:4;stroke-dasharray:none;stroke-opacity:1" d="M162.639 438.258a104.97 104.92 0 0 0-93.09 56.527c21.624 53.426 49.833 103.781 86.287 148.506 1.287 1.579 2.594 3.14 3.9 4.703a104.97 104.92 0 0 0 2.903.104 104.97 104.92 0 0 0 104.97-104.92 104.97 104.92 0 0 0-104.97-104.92zm419.88 0a104.97 104.92 0 0 0-104.97 104.92 104.97 104.92 0 0 0 104.97 104.92 104.97 104.92 0 0 0 2.936-.147c1.294-1.548 2.59-3.096 3.865-4.66 36.442-44.71 64.646-95.047 86.268-148.453a104.97 104.92 0 0 0-93.068-56.58z" transform="matrix(.26458 0 0 .26458 2.28 3.172)"/><path style="fill:#090;fill-opacity:1;stroke:#000;stroke-width:7.99999952;stroke-linecap:round;stroke-linejoin:round;stroke-miterlimit:4;stroke-dasharray:none;stroke-opacity:1" d="M267.61 543.178a104.97 104.92 0 0 0-104.971 104.92 104.97 104.92 0 0 0 .123 3.48c33.46 39.266 73.042 73.275 116.783 100.629a104.97 104.92 0 0 0 93.035-104.11 104.97 104.92 0 0 0-104.97-104.92z" transform="matrix(.26458 0 0 .26458 2.28 3.172)"/><path style="fill:#090;fill-opacity:1;stroke:#000;stroke-width:7.99999952;stroke-linecap:round;stroke-linejoin:round;stroke-miterlimit:4;stroke-dasharray:none;stroke-opacity:1" d="M477.549 543.178a104.97 104.92 0 0 0-104.969 104.92 104.97 104.92 0 0 0 92.947 104.162c43.752-27.349 83.344-61.356 116.815-100.621a104.97 104.92 0 0 0 .178-3.541 104.97 104.92 0 0 0-104.971-104.92z" transform="matrix(.26458 0 0 .26458 2.28 3.172)"/><path style="fill:#090;fill-opacity:1;stroke:#000;stroke-width:7.99999952;stroke-linecap:round;stroke-linejoin:round;stroke-miterlimit:4;stroke-dasharray:none;stroke-opacity:1" d="M372.58 634.098a104.97 104.92 0 0 0-104.97 104.92 104.97 104.92 0 0 0 .199 5.64c32.703 21.72 67.915 39.659 104.77 53.196 36.823-13.526 72.006-31.447 104.687-53.143a104.97 104.92 0 0 0 .285-5.693 104.97 104.92 0 0 0-104.97-104.92z" transform="matrix(.26458 0 0 .26458 2.28 3.172)"/><path style="fill:none;stroke:#000;stroke-width:2.9104166;stroke-linecap:round;stroke-linejoin:round;stroke-miterlimit:4;stroke-dasharray:none;stroke-opacity:1" d="M5.437 4.627a309.11 309.11 0 0 0 1.41 76.148c4.763 33.273 15.428 66.547 36.664 92.601 15.012 18.418 35.043 32.702 57.346 40.895 22.304-8.193 42.335-22.477 57.347-40.895 21.235-26.054 31.901-59.328 36.664-92.6a309.11 309.11 0 0 0 1.41-76.149h-95.42z"/><path transform="translate(201.919)" style="fill:#03f;stroke:#000;stroke-width:2.11666656;stroke-linecap:butt;stroke-linejoin:round;stroke-miterlimit:4;stroke-dasharray:none;stroke-opacity:1;fill-opacity:1" d="m-164.82 19.014-3.76 81.787a139.742 139.742 0 0 0 38.073 3.76 139.62 139.62 0 0 0 25.147-3.29 126.148 126.148 0 0 1-22.092-15.747c-10.537-9.374-19.774-21.147-22.327-35.018a42.936 42.936 0 0 1-.235-14.1l50.294 10.81.236-16.686a365.132 365.132 0 0 1-65.336-11.516"/><g style="stroke:#000;stroke-opacity:1;fill:#03f;fill-opacity:1"><g style="stroke:#000;stroke-opacity:1;fill:#03f;fill-opacity:1"><path style="fill:#03f;stroke:#000;stroke-width:2.11666656;stroke-linecap:butt;stroke-linejoin:miter;stroke-miterlimit:4;stroke-dasharray:none;stroke-opacity:1;fill-opacity:1" d="M-134.306 28.213v8.85M-129.881 32.638h-8.85" transform="translate(202.135 .301)"/></g><g style="stroke:#000;stroke-opacity:1;fill:#03f;fill-opacity:1"><path style="fill:#03f;stroke:#000;stroke-width:2.11666656;stroke-linecap:butt;stroke-linejoin:miter;stroke-miterlimit:4;stroke-dasharray:none;stroke-opacity:1;fill-opacity:1" d="M-134.306 28.213v8.85M-129.881 32.638h-8.85" transform="translate(181.381 -3.089)"/></g><g style="stroke:#000;stroke-opacity:1;fill:#03f;fill-opacity:1"><path style="fill:#03f;stroke:#000;stroke-width:2.11666656;stroke-linecap:butt;stroke-linejoin:miter;stroke-miterlimit:4;stroke-dasharray:none;stroke-opacity:1;fill-opacity:1" d="M-134.306 28.213v8.85M-129.881 32.638h-8.85" transform="translate(222.889 3.692)"/></g></g><path style="fill:#000;stroke:#000;stroke-width:2.11666656;stroke-linecap:round;stroke-linejoin:round;stroke-miterlimit:4;stroke-dasharray:none;stroke-opacity:1" d="m-98.927 30.762 79.436 5.983-4.653 22.767a242.667 242.667 0 0 0-37.225-13.295c-7.483-2.002-15.275-3.655-22.934-2.492a32.081 32.081 0 0 0-14.956 6.48l.332-19.443" transform="translate(201.919)"/><rect style="fill:#fff;fill-opacity:1;stroke:#000;stroke-width:2.11666656;stroke-linecap:round;stroke-linejoin:round;stroke-miterlimit:4;stroke-dasharray:none;stroke-opacity:1" width="6.149" height="24.263" x="105.11" y="14.067" ry="3.074" rx="3.074" transform="rotate(7.165)"/><rect style="fill:#fff;fill-opacity:1;stroke:#000;stroke-width:2.11667514;stroke-linecap:round;stroke-linejoin:round;stroke-miterlimit:4;stroke-dasharray:none;stroke-opacity:1" width="6.762" height="26.488" x="182.345" y="-10.336" ry="3.074" rx="3.074" transform="matrix(.96933 .24578 -.24968 .96833 0 0)"/></g></svg>
